!!!!SEGMENT: pl-sa--481-a-viii-121--035_anonim--ariette.krn
!!!cenid: 18xx:406
!!!COM: Anonim
!!!COM-rismID: pe30004985
!!!CDT:
!!!CNT:
!!!OTL: Ariette
!!!PDT:
!!!AGN: Secular
!!!SMS-siglum: PL-SA
!!!SMS-shelfmark: 481/A VIII 121
!!!SMS-shelfwork: 035 W
!!!SMS-variant:
!!!SMS-altvar:
!!!NIFC-rismSourceID: 1001070709
!!!NIFC-islandoraID:
!!!URL-pdf-islandora:
!!!URL-scan: https://bc.bdsandomierz.pl/dlibra/publication/1212/edition/1171/content @EN{Scan in the Sandomierz Diocese Digital Library} @PL{Skany w portalu Cyfrowa Biblioteka Diecezjalna w Sandomierzu}
!!!ONB-nifc: Str. 24, s. 1-3
!!!AIN: 1 piano
!!!key:
**kern	**kern
*part1	*part1
*staff2	*staff1
*Ipiano	*Iempty
*I"Piano	*
*I'P-no	*
*clefF4	*clefG2
*k[]	*k[]
*C:	*C:
*M3/4	*M3/4
*>[A,A,B,B,C,C,D,D]	*>[A,A,B,B,C,C,D,D]
=1	=1
*>A	*>A
*	*^
2C/	4cc 4g/ 4e/	4ryy
.	4ee/	4cc\
4r	4ee/	4cc\
=2	=2	=2
2GG/	2gg 2ee/	2ee\
4r	4ff/	4dd\
=3	=3	=3
*2\right	*	*
2G\	4g 4e/ 4B/	4ryy
.	4dd/	4b\
4r	4dd/	4b\
=4	=4	=4
2C/	2gg 2dd/	2dd\
4r	4ee/	4cc\
=5	=5	=5
2.r	(>4ee/ 4cc/	4ryy
.	4dd/ 4b/	4ryy
.	4ee 4cc/)	4a\
*	*v	*v
=6	=6
4r	(4b/ 4g/
4r	4a/ 4f/)
4F\	4g/ 4e/
=7	=7
2G\	2e 2c/
4GG/	4d 4B/
=8	=8
4C/	2c/
4GG/	.
4CC/	4r
=9:|!|:	=9:|!|:
*>B	*>B
!	!LO:TUP:a:problem=klamra łukowa
4r	24aa\LL
.	24gg\
.	24ff#X\J
.	8gg\J
(4B\	4r
4G\)	4r
=10	=10
!	!LO:TUP:a:problem=klamra łukowa
4r	24ff\LL
.	24ee\
.	24dd\J
.	8ee\J
(4c\	4r
4G\)	4r
=11	=11
!	!LO:TUP:b:problem=klamra łukowa
4r	24cc/LL
.	24b/
.	24a/J
.	8b/J
(4d\	4r
4G\)	4r
!LO:LB:g=original	!LO:LB:g=original
=12	=12
!	!LO:TUP:b:problem=klamra łukowa
4r	24dd/LL
.	24cc/
.	24b/J
.	8cc/J
(4e\	4r
4G\)	4r
=13	=13
2.r	4ee 4cc/
.	4dd 4b/
.	4cc 4a/
=14	=14
4r	4b 4g/
4r	4a 4f/
4F\	4g 4e/
=15	=15
2G\	2e 2c/
4GG/	4d 4B/
=16	=16
4C/	2c/
4GG/	.
4CC/	4r
=17:|!|:;;	=17:|!|:;;
*>C	*>C
*M3/4	*M3/4
2e 2c\	(8gg\L
.	8ccc\J)
.	(8ee'\L
!	!LO:TX:b:i:t=Trio
.	8ee'\
4r	8ee'\
.	8ee'\J)
=18	=18
2e 2c\	(8ee\L
.	8gg\J)
.	(8cc'\L
.	8cc'\
4r	8cc'\
.	8cc'\J)
=19	=19
*^	*
4ryy	4r	4cc\|
4ryy	4e 4c\	(4cc\
4f	4c\	4dd\)
=20	=20	=20
4d#X/	2.c\	4dd#X\|
4g/	.	(4ee\
4e/	.	4cc\)
*v	*v	*
=21	=21
2e 2c\	(8gg\L
.	8ccc\J)
.	8ee\L
.	8ee\
4r	8ee\
.	8ee\J
=22	=22
2e 2c\	(8ee\L
.	8gg\J)
.	8cc\L
.	8cc\
4r	8cc\
.	8cc\J
!LO:LB:g=original	!LO:LB:g=original
=23	=23
*^	*
2B 2G/	2G\	(8dd\L
.	.	8ee\J)
.	.	8dd\L|
.	.	8dd\|
4c/	4D\	(8ee\
.	.	8ff#X\J)
=24	=24	=24
*	*	*2\right
2.ryy	2.ryy	(2aa\
.	.	4gg\)
=25:|!|:	=25:|!|:	=25:|!|:
*>D	*>D	*>D
2.f 2.d/	2.d 2.G\	8gg\L
.	.	(8ffn\
.	.	8ee\
.	.	8dd\
.	.	8cc\
.	.	8b\J)
=26	=26	=26
2.e 2.c/	2.c\	(8cc\L
.	.	8dd\
.	.	8ee\
.	.	8ff\
.	.	8gg\)
.	.	8ee\J
=27	=27	=27
2.f 2.d/	2.d 2.G\	(8gg\L
.	.	8ff\
.	.	8ee\
.	.	8dd\
.	.	8cc\
.	.	8b\J)
=28	=28	=28
4e/	4c\	(8cc\L
.	.	8dd\
4r	2ryy	8dd#X\
.	.	8ee\
4r	.	8ff\
.	.	8ff#X\J)
=29	=29	=29
2e 2c/	2c\	(8gg\L
.	.	8ccc\J)
.	.	(8ee\L|
.	.	8ee\|
4r	4ryy	8ee\|
.	.	8ee\J)|
=30	=30	=30
2e/	2e 2c\	(8ee\L
.	.	8gg\J)
.	.	(8cc\L|
.	.	8cc\|
4r	4ryy	8cc\|
.	.	8cc\J)|
=31	=31	=31
4e/	4c\	8cc\L
.	.	8dd\
4r	4ryy	8ee\
.	.	8ff\
4f/	4G\	8gg\
.	.	8b\J
=32	=32	=32
2f 2c/	2c\	2dd\
4e/	4c\	4cc\
*v	*v	*
=:|!;;	=:|!;;
*-	*-
!!!system-decoration: {s1,s2}
!!!RDF**kern: > = above
!!!RDF**kern: | = vertical stroke
!!!ENC: Marta Lawrence
!!!END: 2020-11-22
!!!ENC: Tomasz Grochalski
!!!END: 2020-06-15
!!!YEC: Copyright 2022 Narodowy Instytut Fryderyka Chopina (https://polishscores.org)
!!!YEM: Licence CC BY 4.0 (https://creativecommons.org/licenses/by/4.0)
